static/images/service/consult2.svg

<?xml version="1.0"?>
<svg xmlns="http://www.w3.org/2000/svg" xmlns:xlink="http://www.w3.org/1999/xlink" xmlns:svgjs="http://svgjs.com/svgjs" version="1.1" width="512" height="512" x="0" y="0" viewBox="0 0 512 512" style="enable-background:new 0 0 512 512" xml:space="preserve" class=""><g><g xmlns="http://www.w3.org/2000/svg"><path d="m412 192c-11.046 0-20 8.954-20 20s8.954 20 20 20c33.084 0 60 26.916 60 60v160c0 11.028-8.972 20-20 20-3.565 0-6.921-.894-9.973-2.656l-60.026-34.664c-3.041-1.756-6.49-2.68-10.002-2.68h-119.999c-33.084 0-60-26.916-60-60v-40c0-11.046-8.954-20-20-20s-20 8.954-20 20v40c0 55.14 44.859 100 100 100h114.639l55.386 31.983c9.081 5.245 19.448 8.017 29.975 8.017 33.084 0 60-26.916 60-60v-160c0-55.14-44.859-100-100-100z" fill="#6320d6" data-original="#000000" style="" class=""/><path d="m60 320c10.527 0 20.894-2.772 29.977-8.017l55.384-31.983h114.639c55.141 0 100-44.86 100-100v-80c0-55.14-44.859-100-100-100h-160c-55.141 0-100 44.86-100 100v160c0 33.084 26.916 60 60 60zm-20-220c0-33.084 26.916-60 60-60h160c33.084 0 60 26.916 60 60v80c0 33.084-26.916 60-60 60h-119.999c-3.512 0-6.961.924-10.002 2.68l-60.025 34.664c-3.053 1.762-6.409 2.656-9.974 2.656-11.028 0-20-8.972-20-20z" fill="#6320d6" data-original="#000000" style="" class=""/><circle cx="100" cy="140" r="20" fill="#6320d6" data-original="#000000" style="" class=""/><circle cx="180" cy="140" r="20" fill="#6320d6" data-original="#000000" style="" class=""/><circle cx="260" cy="140" r="20" fill="#6320d6" data-original="#000000" style="" class=""/></g></g></svg>

<svg xmlns="http://www.w3.org/2000/svg" width="512" height="512" style="enable-background:new 0 0 512 512" xml:space="preserve"><g xmlns="http://www.w3.org/2000/svg" fill="#6320d6"><path d="M412 192c-11.046 0-20 8.954-20 20s8.954 20 20 20c33.084 0 60 26.916 60 60v160c0 11.028-8.972 20-20 20-3.565 0-6.921-.894-9.973-2.656l-60.026-34.664a20 20 0 0 0-10.002-2.68H252c-33.084 0-60-26.916-60-60v-40c0-11.046-8.954-20-20-20s-20 8.954-20 20v40c0 55.14 44.859 100 100 100h114.639l55.386 31.983A60.008 60.008 0 0 0 452 512c33.084 0 60-26.916 60-60V292c0-55.14-44.859-100-100-100z" data-original="#000000"/><path d="M60 320a60.02 60.02 0 0 0 29.977-8.017L145.361 280H260c55.141 0 100-44.86 100-100v-80C360 44.86 315.141 0 260 0H100C44.859 0 0 44.86 0 100v160c0 33.084 26.916 60 60 60zM40 100c0-33.084 26.916-60 60-60h160c33.084 0 60 26.916 60 60v80c0 33.084-26.916 60-60 60H140.001a20 20 0 0 0-10.002 2.68l-60.025 34.664C66.921 279.106 63.565 280 60 280c-11.028 0-20-8.972-20-20z" data-original="#000000"/><circle cx="100" cy="140" r="20" data-original="#000000"/><circle cx="180" cy="140" r="20" data-original="#000000"/><circle cx="260" cy="140" r="20" data-original="#000000"/></g></svg>
